!! 00008] TT[TB
!! Eigene Aufnahme
!!!OTL: Da gu la
!!!ARE: Neimeng Zhelimumeng
!! Ethnic Group: Menggu
!! IV, 349 (2)
!!!SCT: C0180
!!!YEM: Copyright 1995, estate of Helmut Schaffrath.
**kern
*ICvox
*Ivox
*M2/4
*k[]
*C:
{4a
8a
8g
=1
8.cc
16dd
4ee
=2
8e
8g
8g
16a
16g
=3
8e
8e
4e}
=4
{8ee
16ee
16ee
8ee
8dd
=5
8cc
8cc
8.dd
16gg
=6
[2ee
=7
2ee]}
=8
{8a
4cc
8dd
=9
8.ee
16gg
8ee
8dd
=10
8cc
16dd
16ee
8dd
8cc
=11
8a
8a
4a}
=12
{8cc
16dd
16ee
8a
8g
=13
16e
16e
8g
8.cc
16dd
=14
[2a
=15
2a]}
==
!!!AGN: Duan ge. NannÅ liqing
!! "sehr bekannt und sehr schoen". 2 Strophen auf Band.
!!    Saenger: Chao Lun (?) Batou. (leichte Variante)
!!!ONB: ESAC (Essen Associative Code) Database: CHINA
!!!AMT: simple duple
!!!AIN: vox
!!!EED: Helmut Schaffrath
!!!EEV: 1.0
*-
!!!ONB: Tied note syntax fixed by Craig Sapp, 2004/05/03/
